X: 1066
T: Amanda's Birthday
R: reel
M: 4/4
K: Amajor
|:ABce dcBA|FEFA E2AE|ABce f2fe|BABc B2AG|
ABce dcBA|FEFA B2Bc|Acea fecA|EAAG A2AG:|
|:FAeA EAeA|cBBA BAce|fAfa geBA|f2fe B3A|
cefg agfe|cBBA BcAG|FAeA DAeA|EAAG A2AG:|

